source/img/sprite-icon-logo.svg

<svg width="52" height="52" viewBox="0 0 52 52" fill="none" xmlns="http://www.w3.org/2000/svg">
<path d="M32.0668 13.8665C33.1952 13.8665 34.1485 14.5936 34.5073 15.5998H43.4929C43.8517 14.5936 44.805 13.8665 45.9334 13.8665C47.3669 13.8665 48.5334 15.033 48.5334 16.4664C48.5334 17.8999 47.3669 19.0664 45.9334 19.0664C44.805 19.0664 43.8517 18.3392 43.4929 17.3331H34.5064C34.1476 18.3392 33.1943 19.0664 32.0659 19.0664C30.6324 19.0664 29.4659 17.8999 29.4659 16.4664C29.4659 15.033 30.6333 13.8665 32.0668 13.8665ZM45.9334 17.3331C46.411 17.3331 46.8001 16.9448 46.8001 16.4664C46.8001 15.988 46.411 15.5998 45.9334 15.5998C45.4559 15.5998 45.0668 15.988 45.0668 16.4664C45.0668 16.9448 45.4559 17.3331 45.9334 17.3331ZM32.0668 17.3331C32.5443 17.3331 32.9334 16.9448 32.9334 16.4664C32.9334 15.988 32.5443 15.5998 32.0668 15.5998C31.5892 15.5998 31.2001 15.988 31.2001 16.4664C31.2001 16.9448 31.5892 17.3331 32.0668 17.3331Z" fill="#00B2FF"/>
<path d="M25.1333 19.2259V13.8665C25.1333 13.636 25.2243 13.4158 25.3872 13.2538L28.8539 9.78716C29.0159 9.62423 29.2369 9.53323 29.4666 9.53323H32.2261C32.5849 8.52705 33.5382 7.79993 34.6666 7.79993C36.1001 7.79993 37.2666 8.96644 37.2666 10.3999C37.2666 11.8333 36.1001 12.9998 34.6666 12.9998C33.5382 12.9998 32.5849 12.2727 32.2261 11.2665H29.8254L26.8666 14.2253V19.2259C27.8728 19.5847 28.5999 20.538 28.5999 21.6664C28.5999 23.0998 27.4334 24.2663 25.9999 24.2663C24.5665 24.2663 23.3999 23.0998 23.3999 21.6664C23.3999 20.538 24.1271 19.5847 25.1333 19.2259ZM34.6666 11.2665C35.1441 11.2665 35.5333 10.8783 35.5333 10.3999C35.5333 9.92149 35.1441 9.53323 34.6666 9.53323C34.1891 9.53323 33.7999 9.92149 33.7999 10.3999C33.7999 10.8783 34.1891 11.2665 34.6666 11.2665ZM25.9999 22.533C26.4775 22.533 26.8666 22.1448 26.8666 21.6664C26.8666 21.188 26.4775 20.7997 25.9999 20.7997C25.5224 20.7997 25.1333 21.188 25.1333 21.6664C25.1333 22.1448 25.5224 22.533 25.9999 22.533Z" fill="#00B2FF"/>
<path d="M9.53333 22.533C9.93373 22.533 10.3081 22.6309 10.647 22.7938L12.1333 21.3075V12.9998C12.1333 12.7693 12.2243 12.5491 12.3873 12.3871L21.0609 3.7136C20.8979 3.37474 20.8 3.00035 20.8 2.59996C20.8 1.16651 21.9665 0 23.4 0C24.8335 0 26 1.16651 26 2.59996C26 4.0334 24.8335 5.19991 23.4 5.19991C22.9996 5.19991 22.6252 5.10198 22.2863 4.93905L13.8667 13.3586V21.6663C13.8667 21.8968 13.7757 22.117 13.6127 22.279L11.8725 24.0193C12.0354 24.3581 12.1333 24.7325 12.1333 25.1329C12.1333 26.5664 10.9668 27.7329 9.53333 27.7329C8.09986 27.7329 6.93333 26.5664 6.93333 25.1329C6.93333 23.6995 8.09986 22.533 9.53333 22.533ZM23.4 3.46661C23.8775 3.46661 24.2667 3.07835 24.2667 2.59996C24.2667 2.12156 23.8775 1.7333 23.4 1.7333C22.9225 1.7333 22.5333 2.12156 22.5333 2.59996C22.5333 3.07835 22.9225 3.46661 23.4 3.46661ZM9.53333 25.9996C10.0109 25.9996 10.4 25.6113 10.4 25.1329C10.4 24.6545 10.0109 24.2663 9.53333 24.2663C9.0558 24.2663 8.66667 24.6545 8.66667 25.1329C8.66667 25.6113 9.0558 25.9996 9.53333 25.9996Z" fill="#00B2FF"/>
<path d="M1.73328 12.2926V8.66652C1.73328 8.43599 1.82428 8.21586 1.98722 8.0538L8.05388 1.98723C8.21595 1.8243 8.43695 1.7333 8.66662 1.7333H13.1594C13.5182 0.727121 14.4716 0 15.6 0C17.0334 0 18.2 1.16651 18.2 2.59996C18.2 4.0334 17.0334 5.19991 15.6 5.19991C14.4716 5.19991 13.5182 4.47279 13.1594 3.46661H9.02542L3.46662 9.02532V12.2926C4.47282 12.6514 5.19995 13.6047 5.19995 14.7331C5.19995 16.1665 4.03342 17.333 2.59995 17.333C1.16648 17.333 -4.95911e-05 16.1665 -4.95911e-05 14.7331C-4.95911e-05 13.6047 0.727085 12.6514 1.73328 12.2926ZM15.6 3.46661C16.0775 3.46661 16.4666 3.07835 16.4666 2.59996C16.4666 2.12156 16.0775 1.7333 15.6 1.7333C15.1224 1.7333 14.7333 2.12156 14.7333 2.59996C14.7333 3.07835 15.1224 3.46661 15.6 3.46661ZM2.59995 15.5997C3.07748 15.5997 3.46662 15.2115 3.46662 14.7331C3.46662 14.2547 3.07748 13.8664 2.59995 13.8664C2.12242 13.8664 1.73328 14.2547 1.73328 14.7331C1.73328 15.2115 2.12242 15.5997 2.59995 15.5997Z" fill="#00B2FF"/>
<path d="M13.8658 46.9595V34.5066C12.8604 34.1478 12.1333 33.1945 12.1333 32.0661C12.1333 30.6327 13.2998 29.4661 14.7333 29.4661C15.8617 29.4661 16.815 30.1933 17.1738 31.1995H26.1594C26.5182 30.1933 27.4716 29.4661 28.6 29.4661C29.7284 29.4661 30.6817 30.1933 31.0405 31.1995H36.0412L39.2608 27.9798C39.0979 27.641 39 27.2666 39 26.8662C39 25.4327 40.1665 24.2662 41.6 24.2662C43.0334 24.2662 44.2 25.4327 44.2 26.8662C44.2 28.2996 43.0334 29.4661 41.6 29.4661C41.1996 29.4661 40.8252 29.3682 40.4863 29.2053L37.0127 32.6788C36.8506 32.8418 36.6296 32.9328 36.4 32.9328H31.0405C30.6817 33.9389 29.7284 34.6661 28.6 34.6661C27.4716 34.6661 26.5182 33.9389 26.1594 32.9328H17.173C16.9112 33.6668 16.3332 34.2449 15.5991 34.5066V46.9595C16.6053 47.3183 17.3324 48.2716 17.3324 49.4C17.3324 50.8335 16.1659 52 14.7324 52C13.299 52 12.1324 50.8335 12.1324 49.4C12.1324 48.2716 12.8596 47.3183 13.8658 46.9595ZM41.6 27.7328C42.0775 27.7328 42.4666 27.3446 42.4666 26.8662C42.4666 26.3878 42.0775 25.9995 41.6 25.9995C41.1224 25.9995 40.7333 26.3878 40.7333 26.8662C40.7333 27.3446 41.1224 27.7328 41.6 27.7328ZM28.6 32.9328C29.0775 32.9328 29.4666 32.5445 29.4666 32.0661C29.4666 31.5877 29.0775 31.1995 28.6 31.1995C28.1224 31.1995 27.7333 31.5877 27.7333 32.0661C27.7333 32.5445 28.1224 32.9328 28.6 32.9328ZM14.7333 50.2658C15.2108 50.2658 15.6 49.8775 15.6 49.3991C15.6 48.9208 15.2108 48.5325 14.7333 48.5325C14.2558 48.5325 13.8666 48.9208 13.8666 49.3991C13.8666 49.8775 14.2558 50.2658 14.7333 50.2658ZM14.7333 32.9328C15.2108 32.9328 15.6 32.5445 15.6 32.0661C15.6 31.5877 15.2108 31.1995 14.7333 31.1995C14.2558 31.1995 13.8666 31.5877 13.8666 32.0661C13.8666 32.5445 14.2558 32.9328 14.7333 32.9328Z" fill="#00B2FF"/>
<path d="M18.2 17.4925V14.7331C18.2 14.5026 18.291 14.2824 18.4539 14.1204L28.8609 3.7136C28.6979 3.37474 28.6 3.00035 28.6 2.59996C28.6 1.16651 29.7665 0 31.2 0C32.3284 0 33.2817 0.727121 33.6405 1.7333H37.2667C37.7451 1.7333 38.1333 2.1207 38.1333 2.59996V4.84112L41.353 8.06073C41.6919 7.8978 42.0663 7.79987 42.4667 7.79987C43.9001 7.79987 45.0667 8.96638 45.0667 10.3998C45.0667 11.8333 43.9001 12.9998 42.4667 12.9998C41.0332 12.9998 39.8667 11.8333 39.8667 10.3998C39.8667 9.99943 39.9646 9.62504 40.1275 9.28618L36.6539 5.81264C36.491 5.65057 36.4 5.43044 36.4 5.19991V3.46661H33.6405C33.2817 4.47279 32.3284 5.19991 31.2 5.19991C30.7996 5.19991 30.4252 5.10198 30.0863 4.93905L19.9333 15.0919V17.4925C20.9395 17.8513 21.6667 18.8046 21.6667 19.933C21.6667 21.3664 20.5001 22.533 19.0667 22.533C17.6332 22.533 16.4667 21.3664 16.4667 19.933C16.4667 18.8046 17.1938 17.8513 18.2 17.4925ZM42.4667 11.2665C42.9442 11.2665 43.3333 10.8782 43.3333 10.3998C43.3333 9.92143 42.9442 9.53317 42.4667 9.53317C41.9891 9.53317 41.6 9.92143 41.6 10.3998C41.6 10.8782 41.9891 11.2665 42.4667 11.2665ZM31.2 3.46661C31.6775 3.46661 32.0667 3.07835 32.0667 2.59996C32.0667 2.12156 31.6775 1.7333 31.2 1.7333C30.7225 1.7333 30.3333 2.12156 30.3333 2.59996C30.3333 3.07835 30.7225 3.46661 31.2 3.46661ZM19.0667 20.7997C19.5442 20.7997 19.9333 20.4114 19.9333 19.933C19.9333 19.4546 19.5442 19.0663 19.0667 19.0663C18.5891 19.0663 18.2 19.4546 18.2 19.933C18.2 20.4114 18.5891 20.7997 19.0667 20.7997Z" fill="#00B2FF"/>
<path d="M20.8 24.2663C21.9284 24.2663 22.8817 24.9934 23.2405 25.9996H33.4412L38.3873 21.0536C38.5493 20.8906 38.7703 20.7997 39 20.7997H48.1745L50.2667 18.7076V11.6253L43.5803 4.93905C43.2415 5.10198 42.8671 5.19991 42.4667 5.19991C41.0332 5.19991 39.8667 4.0334 39.8667 2.59996C39.8667 1.16651 41.0332 0 42.4667 0C43.9001 0 45.0667 1.16651 45.0667 2.59996C45.0667 3.00035 44.9687 3.37474 44.8058 3.7136L51.7461 10.6538C51.909 10.8158 52 11.0359 52 11.2665V19.0663C52 19.2969 51.909 19.517 51.7461 19.6791L49.1461 22.279C48.984 22.442 48.763 22.533 48.5333 22.533H39.3588L34.4127 27.4789C34.2507 27.6419 34.0297 27.7329 33.8 27.7329H23.2405C22.8817 28.7391 21.9284 29.4662 20.8 29.4662C19.3665 29.4662 18.2 28.2997 18.2 26.8662C18.2 25.4328 19.3665 24.2663 20.8 24.2663ZM42.4667 1.7333C41.9891 1.7333 41.6 2.12156 41.6 2.59996C41.6 3.07835 41.9891 3.46661 42.4667 3.46661C42.9442 3.46661 43.3333 3.07835 43.3333 2.59996C43.3333 2.12156 42.9442 1.7333 42.4667 1.7333ZM20.8 27.7329C21.2775 27.7329 21.6667 27.3446 21.6667 26.8662C21.6667 26.3878 21.2775 25.9996 20.8 25.9996C20.3225 25.9996 19.9333 26.3878 19.9333 26.8662C19.9333 27.3446 20.3225 27.7329 20.8 27.7329Z" fill="#00B2FF"/>
<path d="M2.59997 20.7997C3.00037 20.7997 3.37477 20.8976 3.71363 21.0606L6.9333 17.841V12.8404C5.9271 12.4816 5.19997 11.5283 5.19997 10.3999C5.19997 8.96644 6.3665 7.79993 7.79997 7.79993C9.23343 7.79993 10.4 8.96644 10.4 10.3999C10.4 11.5283 9.67283 12.4816 8.66663 12.8404V18.1998C8.66663 18.4303 8.57563 18.6504 8.4127 18.8125L4.9391 22.286C5.10204 22.6249 5.19997 22.9993 5.19997 23.3997C5.19997 24.528 4.47283 25.4814 3.46663 25.8402V26.5075L10.146 33.1868C10.309 33.3488 10.4 33.569 10.4 33.7995V34.8256C11.4062 35.1844 12.1333 36.1377 12.1333 37.2661C12.1333 38.3945 11.4062 39.3478 10.4 39.7066V41.7597C11.4062 42.1185 12.1333 43.0718 12.1333 44.2002C12.1333 45.6336 10.9668 46.8001 9.5333 46.8001C8.09983 46.8001 6.9333 45.6336 6.9333 44.2002C6.9333 43.0718 7.66043 42.1185 8.66663 41.7597V39.7066C7.66043 39.3478 6.9333 38.3945 6.9333 37.2661C6.9333 36.1377 7.66043 35.1844 8.66663 34.8256V34.1583L1.98723 27.479C1.8243 27.3169 1.7333 27.0968 1.7333 26.8663V25.8402C0.7271 25.4814 -3.24249e-05 24.528 -3.24249e-05 23.3997C-3.24249e-05 21.9662 1.1665 20.7997 2.59997 20.7997ZM7.79997 11.2665C8.2775 11.2665 8.66663 10.8783 8.66663 10.3999C8.66663 9.92149 8.2775 9.53323 7.79997 9.53323C7.32243 9.53323 6.9333 9.92149 6.9333 10.3999C6.9333 10.8783 7.32243 11.2665 7.79997 11.2665ZM9.5333 45.066C10.0108 45.066 10.4 44.6777 10.4 44.1993C10.4 43.7209 10.0108 43.3327 9.5333 43.3327C9.05577 43.3327 8.66663 43.7209 8.66663 44.1993C8.66663 44.6777 9.05577 45.066 9.5333 45.066ZM9.5333 38.1328C10.0108 38.1328 10.4 37.7445 10.4 37.2661C10.4 36.7877 10.0108 36.3995 9.5333 36.3995C9.05577 36.3995 8.66663 36.7877 8.66663 37.2661C8.66663 37.7445 9.05577 38.1328 9.5333 38.1328ZM2.59997 24.2663C3.0775 24.2663 3.46663 23.8781 3.46663 23.3997C3.46663 22.9213 3.0775 22.533 2.59997 22.533C2.12243 22.533 1.7333 22.9213 1.7333 23.3997C1.7333 23.8781 2.12243 24.2663 2.59997 24.2663Z" fill="#00B2FF"/>
</svg>

<svg width="52" height="52" fill="none" xmlns="http://www.w3.org/2000/svg"><path d="M32.067 13.867c1.128 0 2.081.727 2.44 1.733h8.986a2.596 2.596 0 012.44-1.733c1.434 0 2.6 1.166 2.6 2.6 0 1.433-1.166 2.6-2.6 2.6a2.597 2.597 0 01-2.44-1.734h-8.987a2.597 2.597 0 01-2.44 1.733 2.603 2.603 0 01-2.6-2.6c0-1.433 1.167-2.6 2.6-2.6zm13.866 3.466a.868.868 0 000-1.733.867.867 0 000 1.733zm-13.866 0a.868.868 0 10-.002-1.735.868.868 0 00.002 1.735z" fill="#00B2FF"/><path d="M25.133 19.226v-5.36c0-.23.091-.45.254-.612l3.467-3.467a.864.864 0 01.613-.254h2.76a2.596 2.596 0 012.44-1.733c1.433 0 2.6 1.166 2.6 2.6 0 1.433-1.167 2.6-2.6 2.6a2.596 2.596 0 01-2.44-1.733h-2.402l-2.958 2.958v5a2.596 2.596 0 011.733 2.441c0 1.434-1.167 2.6-2.6 2.6a2.603 2.603 0 01-2.6-2.6c0-1.128.727-2.081 1.733-2.44zm9.534-7.96a.868.868 0 10-.002-1.735.868.868 0 00.002 1.736zM26 22.534a.867.867 0 10-.002-1.735.867.867 0 00.002 1.735zm-16.467-.001c.4 0 .775.098 1.114.26l1.486-1.485V13c0-.23.091-.45.254-.613l8.674-8.673A2.556 2.556 0 0120.8 2.6c0-1.433 1.166-2.6 2.6-2.6C24.834 0 26 1.167 26 2.6s-1.166 2.6-2.6 2.6c-.4 0-.775-.098-1.114-.261l-8.42 8.42v8.307c0 .23-.09.451-.253.613l-1.74 1.74c.162.34.26.714.26 1.114 0 1.433-1.166 2.6-2.6 2.6a2.603 2.603 0 01-2.6-2.6c0-1.433 1.167-2.6 2.6-2.6zM23.4 3.467a.868.868 0 000-1.734.868.868 0 000 1.734zM9.533 26a.868.868 0 10-.001-1.735A.868.868 0 009.533 26zm-7.8-13.707V8.667c0-.231.091-.451.254-.613l6.067-6.067a.864.864 0 01.613-.254h4.492A2.597 2.597 0 0115.6 0c1.433 0 2.6 1.167 2.6 2.6s-1.167 2.6-2.6 2.6a2.597 2.597 0 01-2.44-1.733H9.024L3.467 9.025v3.268a2.596 2.596 0 011.733 2.44c0 1.433-1.167 2.6-2.6 2.6a2.603 2.603 0 01-2.6-2.6c0-1.128.727-2.082 1.733-2.44zM15.6 3.467a.867.867 0 10-.002-1.735.867.867 0 00.002 1.735zM2.6 15.6a.867.867 0 10-.002-1.735A.867.867 0 002.6 15.6zm11.266 31.36V34.507a2.597 2.597 0 01-1.733-2.44c0-1.434 1.167-2.6 2.6-2.6 1.129 0 2.082.726 2.44 1.733h8.986a2.597 2.597 0 012.441-1.734c1.128 0 2.082.727 2.44 1.733h5.001l3.22-3.22A2.557 2.557 0 0139 26.867c0-1.433 1.166-2.6 2.6-2.6 1.433 0 2.6 1.167 2.6 2.6 0 1.434-1.167 2.6-2.6 2.6-.4 0-.775-.098-1.114-.26l-3.473 3.473a.864.864 0 01-.613.254h-5.36a2.597 2.597 0 01-2.44 1.733 2.597 2.597 0 01-2.44-1.733h-8.987a2.598 2.598 0 01-1.574 1.574V46.96a2.596 2.596 0 011.733 2.44c0 1.434-1.166 2.6-2.6 2.6a2.603 2.603 0 01-2.6-2.6c0-1.128.728-2.082 1.734-2.44zM41.6 27.732a.867.867 0 10-.002-1.735.867.867 0 00.002 1.735zm-13 5.2a.868.868 0 10-.002-1.735.868.868 0 00.002 1.735zM14.733 50.266a.868.868 0 000-1.733.868.868 0 000 1.733zm0-17.333a.868.868 0 000-1.733.868.868 0 000 1.733z" fill="#00B2FF"/><path d="M18.2 17.492v-2.759c0-.23.091-.45.254-.613L28.86 3.714A2.556 2.556 0 0128.6 2.6c0-1.433 1.166-2.6 2.6-2.6 1.128 0 2.082.727 2.44 1.733h3.627c.478 0 .866.388.866.867v2.241l3.22 3.22a2.556 2.556 0 011.114-.261c1.433 0 2.6 1.166 2.6 2.6 0 1.433-1.167 2.6-2.6 2.6a2.603 2.603 0 01-2.6-2.6c0-.4.098-.775.26-1.114l-3.473-3.473A.863.863 0 0136.4 5.2V3.467h-2.76A2.596 2.596 0 0131.2 5.2c-.4 0-.775-.098-1.114-.261L19.933 15.092v2.4a2.596 2.596 0 011.734 2.441c0 1.433-1.167 2.6-2.6 2.6a2.603 2.603 0 01-2.6-2.6c0-1.128.727-2.082 1.733-2.44zm24.267-6.226a.868.868 0 10-.002-1.735.868.868 0 00.002 1.736zM31.2 3.467a.868.868 0 000-1.733.868.868 0 000 1.734zM19.067 20.8a.868.868 0 10-.002-1.735.868.868 0 00.002 1.735z" fill="#00B2FF"/><path d="M20.8 24.266c1.128 0 2.082.727 2.44 1.734h10.201l4.946-4.946A.864.864 0 0139 20.8h9.175l2.092-2.092v-7.083L43.58 4.94c-.338.163-.713.26-1.113.26a2.603 2.603 0 01-2.6-2.599c0-1.433 1.166-2.6 2.6-2.6 1.433 0 2.6 1.167 2.6 2.6 0 .4-.098.775-.261 1.114l6.94 6.94a.863.863 0 01.254.613v7.8c0 .23-.091.45-.254.612l-2.6 2.6a.864.864 0 01-.613.254H39.36l-4.946 4.946a.864.864 0 01-.613.254H23.24a2.596 2.596 0 01-2.44 1.733 2.603 2.603 0 01-2.6-2.6c0-1.433 1.166-2.6 2.6-2.6zM42.467 1.733a.868.868 0 10.001 1.735.868.868 0 00-.001-1.735zm-21.667 26a.868.868 0 000-1.733.868.868 0 000 1.733zM2.6 20.8c.4 0 .775.098 1.114.26l3.22-3.219v-5A2.596 2.596 0 015.2 10.4c0-1.434 1.167-2.6 2.6-2.6s2.6 1.166 2.6 2.6a2.596 2.596 0 01-1.733 2.44v5.36c0 .23-.091.45-.254.613l-3.474 3.473c.163.339.261.713.261 1.114a2.597 2.597 0 01-1.733 2.44v.668l6.679 6.679a.863.863 0 01.254.613v1.026a2.596 2.596 0 011.733 2.44 2.596 2.596 0 01-1.733 2.44v2.054a2.596 2.596 0 011.733 2.44c0 1.434-1.166 2.6-2.6 2.6a2.603 2.603 0 01-2.6-2.6c0-1.128.727-2.082 1.734-2.44v-2.053a2.596 2.596 0 01-1.734-2.44c0-1.13.727-2.083 1.734-2.441v-.668l-6.68-6.679a.863.863 0 01-.254-.613V25.84A2.597 2.597 0 010 23.4c0-1.434 1.167-2.6 2.6-2.6zm5.2-9.534a.867.867 0 10-.002-1.734.867.867 0 00.002 1.735zm1.733 33.8a.868.868 0 000-1.733.867.867 0 000 1.733zm0-6.933a.868.868 0 000-1.733.867.867 0 000 1.733zM2.6 24.266a.867.867 0 10-.002-1.735.867.867 0 00.002 1.735z" fill="#00B2FF"/></svg>
